src/assets/svg/idea.svg

<svg width="42" height="42" viewBox="0 0 42 42" fill="none" xmlns="http://www.w3.org/2000/svg">
<path d="M15.4 0.349976C6.89482 0.349976 0 7.2448 0 15.75V40.95C0 41.3366 0.313425 41.65 0.7 41.65H12.6C12.9866 41.65 13.3 41.3366 13.3 40.95V37.45H21.7C24.4049 37.4469 26.5969 35.2549 26.6 32.55V24.85H30.1C30.4866 24.85 30.8 24.5366 30.8 24.15V15.75C30.8 7.2448 23.9052 0.349976 15.4 0.349976ZM29.4 23.45H25.9C25.5134 23.45 25.2 23.7634 25.2 24.15V32.55C25.1977 34.482 23.632 36.0477 21.7 36.05H12.6C12.2134 36.05 11.9 36.3634 11.9 36.75V40.25H1.4V15.75C1.4 8.01795 7.66798 1.74998 15.4 1.74998C23.132 1.74998 29.4 8.01795 29.4 15.75V23.45Z" fill="black"/>
<path d="M19.6 25.396V23.0804C21.3786 21.626 22.4072 19.4476 22.4 17.15C22.4 12.8974 18.9526 9.45001 14.7 9.45001C10.4474 9.45001 7.00004 12.8974 7.00004 17.15C6.99286 19.4476 8.02142 21.626 9.80004 23.0804V25.396C8.94087 26.1612 8.86457 27.478 9.62976 28.3372C9.90197 28.6429 10.2583 28.8615 10.654 28.966C10.2171 30.0362 10.7306 31.2579 11.8008 31.6948C12.0545 31.7984 12.3261 31.8511 12.6 31.85H16.8C17.956 31.854 18.8962 30.9201 18.9001 29.7641C18.9011 29.4915 18.8487 29.2213 18.746 28.9688C19.8589 28.6767 20.5241 27.5377 20.232 26.4249C20.1275 26.0271 19.9076 25.6691 19.6 25.396ZM16.8 30.45H12.6C12.2135 30.45 11.9 30.1366 11.9 29.75C11.9 29.3634 12.2135 29.05 12.6 29.05H16.8C17.1866 29.05 17.5 29.3634 17.5 29.75C17.5 30.1366 17.1866 30.45 16.8 30.45ZM18.2 27.65H11.2C10.8135 27.65 10.5 27.3366 10.5 26.95C10.5 26.5634 10.8135 26.25 11.2 26.25H18.2C18.5866 26.25 18.9 26.5634 18.9 26.95C18.9 27.3366 18.5866 27.65 18.2 27.65ZM18.48 22.1816C18.3038 22.3138 18.2 22.5213 18.2 22.7416V24.85H11.2V22.7402C11.1996 22.5204 11.0959 22.3135 10.92 22.1816C8.13649 20.094 7.57237 16.1452 9.66004 13.3616C11.7477 10.5781 15.6965 10.0139 18.48 12.1016C21.2636 14.1893 21.8277 18.1381 19.74 20.9216C19.3819 21.3992 18.9576 21.8234 18.48 22.1816Z" fill="#E10303"/>
<path d="M14.7 5.25C14.3134 5.25 14 5.56343 14 5.95V7.35C14 7.73658 14.3134 8.05 14.7 8.05C15.0866 8.05 15.4 7.73658 15.4 7.35V5.95C15.4 5.56343 15.0866 5.25 14.7 5.25Z" fill="#E10303"/>
<path d="M9.506 8.81016L8.68 7.67756C8.45267 7.36483 8.01482 7.29553 7.7021 7.52286C7.38937 7.75018 7.32007 8.18803 7.54739 8.50076L8.3734 9.63336C8.60072 9.94609 9.03857 10.0154 9.3513 9.78806C9.66402 9.56074 9.73332 9.12289 9.506 8.81016Z" fill="#E10303"/>
<path d="M5.59587 13.454V13.4561L4.26587 13.0228C3.89321 12.9199 3.50768 13.1385 3.40478 13.5111C3.30836 13.8603 3.49421 14.2254 3.83327 14.3528L5.16327 14.7854C5.23318 14.808 5.30616 14.8195 5.37957 14.8197C5.76615 14.8196 6.07948 14.5062 6.07948 14.1195C6.0794 13.8164 5.88418 13.5477 5.59587 13.454Z" fill="#E10303"/>
<path d="M21.643 7.53269C21.3434 7.33862 20.9458 7.40109 20.7201 7.67759L19.8941 8.81019C19.6668 9.12292 19.736 9.56068 20.0487 9.78801C20.1682 9.87481 20.312 9.92171 20.4597 9.92179C20.684 9.92206 20.8948 9.81478 21.0267 9.63339L21.8499 8.50079C22.0601 8.17634 21.9674 7.74287 21.643 7.53269Z" fill="#E10303"/>
<path d="M25.9757 13.4534C25.8483 13.1144 25.4833 12.9284 25.134 13.0249L23.8041 13.4582C23.4364 13.5778 23.2352 13.9727 23.3548 14.3404C23.4485 14.6287 23.7173 14.8239 24.0204 14.8239V14.8218C24.0938 14.8217 24.1667 14.8101 24.2367 14.7875L25.5666 14.3549C25.9285 14.219 26.1117 13.8153 25.9757 13.4534Z" fill="#E10303"/>
<path d="M41.3002 6.64998H39.2002V4.54998C39.2002 4.1634 38.8868 3.84998 38.5002 3.84998H35.7002C35.3136 3.84998 35.0002 4.1634 35.0002 4.54998V6.64998H32.9002C32.5136 6.64998 32.2002 6.9634 32.2002 7.34998V10.15C32.2002 10.5366 32.5136 10.85 32.9002 10.85H35.0002V12.95C35.0002 13.3365 35.3136 13.65 35.7002 13.65H38.5002C38.8868 13.65 39.2002 13.3365 39.2002 12.95V10.85H41.3002C41.6868 10.85 42.0002 10.5366 42.0002 10.15V7.34998C42.0002 6.9634 41.6868 6.64998 41.3002 6.64998ZM40.6002 9.44998H38.5002C38.1136 9.44998 37.8002 9.7634 37.8002 10.15V12.25H36.4002V10.15C36.4002 9.7634 36.0868 9.44998 35.7002 9.44998H33.6002V8.04998H35.7002C36.0868 8.04998 36.4002 7.73655 36.4002 7.34998V5.24998H37.8002V7.34998C37.8002 7.73655 38.1136 8.04998 38.5002 8.04998H40.6002V9.44998Z" fill="#E10303"/>
<path d="M41.3002 19.25H39.2002V17.15C39.2002 16.7634 38.8868 16.45 38.5002 16.45H35.7002C35.3136 16.45 35.0002 16.7634 35.0002 17.15V19.25H32.9002C32.5136 19.25 32.2002 19.5634 32.2002 19.95V22.75C32.2002 23.1366 32.5136 23.45 32.9002 23.45H35.0002V25.55C35.0002 25.9366 35.3136 26.25 35.7002 26.25H38.5002C38.8868 26.25 39.2002 25.9366 39.2002 25.55V23.45H41.3002C41.6868 23.45 42.0002 23.1366 42.0002 22.75V19.95C42.0002 19.5634 41.6868 19.25 41.3002 19.25ZM40.6002 22.05H38.5002C38.1136 22.05 37.8002 22.3634 37.8002 22.75V24.85H36.4002V22.75C36.4002 22.3634 36.0868 22.05 35.7002 22.05H33.6002V20.65H35.7002C36.0868 20.65 36.4002 20.3366 36.4002 19.95V17.85H37.8002V19.95C37.8002 20.3366 38.1136 20.65 38.5002 20.65H40.6002V22.05Z" fill="#E10303"/>
<path d="M41.3002 31.85H39.2002V29.75C39.2002 29.3634 38.8868 29.05 38.5002 29.05H35.7002C35.3136 29.05 35.0002 29.3634 35.0002 29.75V31.85H32.9002C32.5136 31.85 32.2002 32.1634 32.2002 32.55V35.35C32.2002 35.7366 32.5136 36.05 32.9002 36.05H35.0002V38.15C35.0002 38.5366 35.3136 38.85 35.7002 38.85H38.5002C38.8868 38.85 39.2002 38.5366 39.2002 38.15V36.05H41.3002C41.6868 36.05 42.0002 35.7366 42.0002 35.35V32.55C42.0002 32.1634 41.6868 31.85 41.3002 31.85ZM40.6002 34.65H38.5002C38.1136 34.65 37.8002 34.9634 37.8002 35.35V37.45H36.4002V35.35C36.4002 34.9634 36.0868 34.65 35.7002 34.65H33.6002V33.25H35.7002C36.0868 33.25 36.4002 32.9366 36.4002 32.55V30.45H37.8002V32.55C37.8002 32.9366 38.1136 33.25 38.5002 33.25H40.6002V34.65Z" fill="#E10303"/>
</svg>

<svg width="42" height="42" fill="none" xmlns="http://www.w3.org/2000/svg">
  <path
    d="M15.4.35C6.895.35 0 7.245 0 15.75v25.2a.7.7 0 00.7.7h11.9a.7.7 0 00.7-.7v-3.5h8.4a4.906 4.906 0 004.9-4.9v-7.7h3.5a.7.7 0 00.7-.7v-8.4c0-8.505-6.895-15.4-15.4-15.4zm14 23.1h-3.5a.7.7 0 00-.7.7v8.4a3.504 3.504 0 01-3.5 3.5h-9.1a.7.7 0 00-.7.7v3.5H1.4v-24.5c0-7.732 6.268-14 14-14s14 6.268 14 14v7.7z"
    fill="#000" />
  <path
    d="M19.6 25.396V23.08a7.63 7.63 0 002.8-5.93 7.7 7.7 0 10-15.4 0 7.63 7.63 0 002.8 5.93v2.316a2.083 2.083 0 00.854 3.57A2.093 2.093 0 0012.6 31.85h4.2a2.093 2.093 0 001.946-2.881 2.083 2.083 0 00.854-3.573zm-2.8 5.054h-4.2a.7.7 0 010-1.4h4.2a.7.7 0 110 1.4zm1.4-2.8h-7a.7.7 0 010-1.4h7a.7.7 0 110 1.4zm.28-5.468a.7.7 0 00-.28.56v2.108h-7v-2.11a.7.7 0 00-.28-.558 6.3 6.3 0 117.56 0zM14.7 5.25a.7.7 0 00-.7.7v1.4a.7.7 0 001.4 0v-1.4a.7.7 0 00-.7-.7zM9.506 8.81L8.68 7.678a.7.7 0 00-1.133.823l.826 1.132a.7.7 0 001.133-.823zM5.596 13.454v.002l-1.33-.433a.7.7 0 00-.433 1.33l1.33.432a.7.7 0 00.433-1.331zM21.643 7.533a.7.7 0 00-.923.145l-.826 1.132a.7.7 0 101.133.823l.823-1.132a.7.7 0 00-.207-.968zM25.976 13.453a.7.7 0 00-.842-.428l-1.33.433a.7.7 0 00.216 1.366v-.002a.707.707 0 00.217-.034l1.33-.433a.7.7 0 00.409-.902zM41.3 6.65h-2.1v-2.1a.7.7 0 00-.7-.7h-2.8a.7.7 0 00-.7.7v2.1h-2.1a.7.7 0 00-.7.7v2.8a.7.7 0 00.7.7H35v2.1a.7.7 0 00.7.7h2.8a.7.7 0 00.7-.7v-2.1h2.1a.7.7 0 00.7-.7v-2.8a.7.7 0 00-.7-.7zm-.7 2.8h-2.1a.7.7 0 00-.7.7v2.1h-1.4v-2.1a.7.7 0 00-.7-.7h-2.1v-1.4h2.1a.7.7 0 00.7-.7v-2.1h1.4v2.1a.7.7 0 00.7.7h2.1v1.4zM41.3 19.25h-2.1v-2.1a.7.7 0 00-.7-.7h-2.8a.7.7 0 00-.7.7v2.1h-2.1a.7.7 0 00-.7.7v2.8a.7.7 0 00.7.7H35v2.1a.7.7 0 00.7.7h2.8a.7.7 0 00.7-.7v-2.1h2.1a.7.7 0 00.7-.7v-2.8a.7.7 0 00-.7-.7zm-.7 2.8h-2.1a.7.7 0 00-.7.7v2.1h-1.4v-2.1a.7.7 0 00-.7-.7h-2.1v-1.4h2.1a.7.7 0 00.7-.7v-2.1h1.4v2.1a.7.7 0 00.7.7h2.1v1.4zM41.3 31.85h-2.1v-2.1a.7.7 0 00-.7-.7h-2.8a.7.7 0 00-.7.7v2.1h-2.1a.7.7 0 00-.7.7v2.8a.7.7 0 00.7.7H35v2.1a.7.7 0 00.7.7h2.8a.7.7 0 00.7-.7v-2.1h2.1a.7.7 0 00.7-.7v-2.8a.7.7 0 00-.7-.7zm-.7 2.8h-2.1a.7.7 0 00-.7.7v2.1h-1.4v-2.1a.7.7 0 00-.7-.7h-2.1v-1.4h2.1a.7.7 0 00.7-.7v-2.1h1.4v2.1a.7.7 0 00.7.7h2.1v1.4z"
    fill="#E10303" /></svg>
